X:1
T:Title
%%score 1 2
L:1/8
M:4/4
K:Bb
V:1 treble nm="Grand Piano, Soprano"
V:2 bass nm="Choir Pad, Bass"
V:1
 [DF]2 [Fd]2 [Bd]2 [Ad]2 | [Gd]2 [Fd]4 [DB]2 | [FB]2 [GB]2 [Gc]2 [GB]2 | [EG]2 [DF]6 | %4
w: By~William~J.~Ramsay * * *||||
 F2 [Fc]2 [Fc]2 [Ec]2 | [Dd]2 [DB]2 [DB]2 [DB]2 | [Fc]2 [Fd]2 [Fd]2 [Fe]2 | [Fd]2 [Fc]6 | %8
w: ||||
 F2 [Fd]2 [Bd]2 [Ad]2 | [Gd]2 [Fd]4 [DB]2 | [FB]2 [GB]2 [Gc]2 [GB]2 | [EG]2 [DF]6 | %12
w: ||||
 [DF]2 [FB]2 [FB]2 [FB]2 | [Fc]2 [Fd]2 [Fe]2 [Ff]2 | [Ge]2 [Fd]2- [Fd][Fd] [Ec]2 | [Ec]2 [DB]6 | %16
w: ||||
 [_AB]2 [GB]2 [Ge]2 [Ge]2 | [Ge]2 [Ge]4 [GB]2 | [Gc]2 [Fd]2 [Bd]2 [Ad]2 | [Gd]2 [Fd]6 | %20
w: ||||
 [Fd]2 [Ff]2 [Fd]2 [Fe]2 | [Fd]2 [Gc]2 [GB]2 [FA]2 | [EG]2 [DF]2 [Fd]2 [Fd]2 | [Ec]2 [DB]6- | %24
w: ||||
 [DB]2 z2 z4 |] %25
w: |
V:2
 [B,,B,]2 [B,,B,]2 [B,,B,]2 [B,,B,]2 | [B,,B,]2 [B,,B,]4 [B,,F,]2 | [D,B,]2 [E,E]2 [E,E]2 [E,E]2 | %3
 [E,B,]2 [B,,B,]6 | [D,B,]2 [F,A,]2 [F,A,]2 [F,A,]2 | [^F,A,]2 [G,B,]2 [G,B,]2 [G,B,]2 | %6
 [F,A,]2 B,2 B,2 [A,C]2 | B,2 [F,A,]6 | [F,A,]2 [B,,B,]2 [B,,B,]2 [B,,B,]2 | %9
 [B,,B,]2 [B,,B,]4 [B,,F,]2 | [D,B,]2 [E,E]2 [E,E]2 [E,E]2 | [E,B,]2 [B,,B,]6 | %12
 [B,,B,]2 [D,B,]2 [D,B,]2 [D,B,]2 | [F,A,]2 [B,,B,]2 [C,A,]2 [D,B,]2 | %14
 [E,B,]2 [F,B,]2- [F,B,][F,B,] [F,A,]2 | [F,A,]2 [B,,B,]6 | [B,D]2 [E,E]2 [E,B,]2 [E,B,]2 | %17
 [E,B,]2 [E,B,]4 [E,B,]2 | [E,B,]2 [B,,B,]2 [B,,B,]2 [B,,B,]2 | [B,,B,]2 [B,,B,]6 | %20
 [B,,B,]2 [B,D]2 [B,,B,]2 [C,A,]2 | [D,B,]2 [E,E]2 [E,E]2 [E,E]2 | %22
 [E,B,]2 [F,B,]2 [F,B,]2 [F,B,]2 | [F,A,]2 [B,,B,]6- | [B,,B,]2 z2 z4 |] %25

